X: 138
T:the Bridge of Spey, a Strathspey
B:William Marshall's Scottish Airs, Melodies, Strathspeys, Reels &c (1822)
C:William Marshall
L:1/8
M:C
N:Slow when not danced
O:Scotland
R:Strathspey
Z:Clark Bernst + Richard Robinson
%%Page:33 - 1
F:http://richardrobinson.tunebook.org.uk/tune/3981
%%TBL:{"version":1,"type":"tune","id":"3981"}
K:D
%%staves {1 2}
V:1
"^Slow when not danced"
B, | \
(A,<D)(D>A,) (C<D)(D<B) | A<F!trill!E>D {D}B,2 B,2 | \
(A,<D)(D>A,) (C<D)(D<B) | A<F~E>F D2 D :|
g | \
f>de>c d>AB>d | A<FE>D B,2 (B,>g) | \
f>de>c d>A B<d | A<FE>F D2 (B,>g) |
f>de>c (d>A) (B/c/d//c//B/) | A<FE>D {D}B,2 B,2 | \
(A,<D)(C>A,) (C<D)D<B | A<F~E>F D2 D |]
V:2 middle=d clef=bass
L:1/4
z/ | DdDG | FDGG | DdDG | AADD/ :| \
z/ | dAdg | fdgG | dAdg |aAdd | dA[df]g | fdgG |DdDG | AADD/ |]

